!!!!SEGMENT: pl-wtm--iii-41-637-1--001-001_joteyko-tadeusz--sonatine-c-dur-op-18-no-1-i-allegro-assai.krn
!!!cenid: 19xx:103
!!!COM: Joteyko, Tadeusz
!!!COM-rismID: pe50046072
!!!CDT: 1872-1932
!!!CNT: Polish
!!!OPR: Sonatine C-dur Op. 18 No. 1
!!!OTL: I. Allegro assai
!!!OMV: 001
!!!PDT:
!!!AGN: Secular; Sonata
!!!YEC: Copyright 2022 Narodowy Instytut Fryderyka Chopina (https://polishscores.org)
!!!YEM: License CC-BY-4.0 (https://creativecommons.org/licenses/by/4.0)
!!!SMS-siglum: PL-Wtm
!!!SMS-shelfmark: III.41.637-1
!!!SMS-variant:
!!!SMS-altvar:
!!!SMS-shelfwork: 001-001 M
!!!NIFC-rismSourceID: 1001141217
!!!NIFC-rismChildID: 1001141217
!!!NIFC-islandoraID: pl-wtm:20249
!!!URL-pdf-islandora: https://repozytorium.nifc.pl/islandora/object/pl-wtm%3A20249/datastream/PDF/view
!!!URL-scan: https://polish.musicsources.pl/pl/lokalizacje/galeria/druki-muzyczne/17521/2 @EN{Scan on Polish Music Sources Website} @PL{Skany w portalu Dziedzictwo Muzyki Polskiej w otwartym dostępie}
!!!IIIF:
!!!ONB-nifc: UWAGA: części Sonatiny: I. Allegro assai, II. Chanson polonaise, III. Rondo alla Cracoviana
!!!AIN: 2 forte
!!!key: C
**kern	**fing	**kern	**fing	**dynam
*part2	*part2	*part1	*part1	*part1
*staff2	*	*staff1	*	*
*I"Piano	*	*I"Piano	*	*
*I'P-no	*	*I'P-no	*	*
*Iforte	*	*Iforte	*	*
*ICklav	*	*ICklav	*	*
*clefG2	*	*clefG2	*	*
*k[]	*	*k[]	*	*
*C:	*	*C:	*	*
*M4/4	*	*M4/4	*	*
=1	=1	=1	=1	=1
1r	.	(2gg\	5	mp
.	.	4ee\	3	.
.	.	4cc\	1	.
=2	=2	=2	=2	=2
*	*below	*	*	*
4r	.	4.a/	2	p
(>4f/	1	.	.	.
.	.	8b\	3	.
4.e/	.	4cc\	4	.
.	.	4g/	1	.
8d/	3	.	.	.
=3	=3	=3	=3	=3
4c/	1	8a/L	2	.
.	.	8g/	.	.
4B/	2	8a/	.	.
.	.	8b/J	.	.
4A/	3	8cc\L	1	<
.	.	8dd\	.	.
4G/	4	8ee\	3	.
.	.	8cc\J	1	[[
=4	=4	=4	=4	=4
8A/L	3	4.ff\	4	.
8B/J	2	.	.	.
4c/	1	.	.	.
.	.	8ee\)	.	>
4B/	2	4dd\	.	.
4G/)	4	4r	.	]
=5	=5	=5	=5	=5
8r	.	(2aa\	5	.
(8A/L	4	.	.	.
8B/	.	.	.	.
8c/J	.	.	.	.
8d/L	1	4ff\	3	.
8e/	3	.	.	.
8f/	.	4dd\	1	.
8g/J)	1	.	.	.
!!LO:LB:g=original
=6	=6	=6	=6	=6
8r	.	4.cc#X\	2	.
(8a/L	1	.	.	.
8g/	.	.	.	.
8f/J)	.	8dd\	.	.
8r	.	4ee\	.	.
(>8g/L	1	.	.	.
8f/	.	4cc#\	.	.
8e/J	.	.	.	.
=7	=7	=7	=7	=7
4.f/	2	8dd\L	3	.
.	.	8cc#X\	2	.
.	.	8dd\	1	.
8e/	3	8ee\J	3	.
4d/	4	8gg\L	5	<
.	.	8ff\	4	.
4g/)	1	8ee\	3	.
.	.	8dd\J	2	[
=8	=8	=8	=8	=8
(>8e/L	1	4ccn\)	1	.
8d/	.	.	.	.
8c/	.	4r	.	.
8B/J	.	.	.	.
4A/	5	(8ff\L	5	.
.	.	8ee\	.	.
4e/)	.	8dd\	.	.
.	.	8cc\J	.	.
*clefF4	*	*	*	*
=9	=9	=9	=9	=9
(8d\L	1	4b\)	1	.
8c\	.	.	.	.
8B\	.	4r	.	.
8A\J	.	.	.	.
4G\	5	(8ee\L	5	.
.	.	8dd\	.	.
4d\)	.	8cc\	.	.
.	.	8b\J	.	.
=10	=10	=10	=10	=10
(8c\L	2	4a/)	.	.
8B\	1	.	.	.
8A\	.	4r	.	.
8G\J	.	.	.	.
4F#X\	4	(8dd\L	5	.
.	.	8cc\	.	.
8G\L	3	8b\	.	.
8A\J	2	8a\J	.	.
!!LO:LB:g=original
=11	=11	=11	=11	=11
4B\	1	8g/L	1	.
.	.	8b/	3	.
4c#X\	3	8a/	.	.
.	.	8g/J	.	.
4d\)	2	8f#X/L	3	.
.	.	8a/	5	.
4r	.	8g/	.	.
.	.	8f#/J	.	.
=12	=12	=12	=12	=12
4G\	2	8e/L	2	.
.	.	8d/	1	<
8r	.	8e/	.	.
(8F#X\	3	8f#X/J	.	.
8E\L	4	8g/L	1	.
8F#\	.	8a/	.	.
8G\	.	8b/	.	.
8A\J)	.	8cc/J)	4	[[
=13	=13	=13	=13	=13
!	!	!LO:TX:i:a:t=Cantabile.	!	!
(8B\L	3	(4f#X'\ 4dd	1 4	mf
8d\	.	.	.	.
8c\	.	4f#'\ 4ee	5	.
8d\J	.	.	.	.
8B\L	.	4g'\ 4ee	.	.
8d\	.	.	.	.
8B\	.	4g'\) 4dd	.	.
8d\J	.	.	.	.
=14	=14	=14	=14	=14
.	.	(<8qdd/	5	.
*	*	*^	*	*
8A\L	4	(8cc/L)	4g\	4	.
8d\	.	8b/	.	.	.
8A\	.	8cc/	4f#X\	1 4	.
8d\J	.	8a/J	.	.	.
8G\L	5	4g/ 4b	2ryy	1 3	.
8d\	.	.	.	.	.
8B\	.	4g/)	.	.	.
8d\J)	.	.	.	.	.
=15	=15	=15	=15	=15	=15
(8F#X\L	5	(>4a/	2ryy	2	.
8d#X\	.	.	.	.	.
8B\	.	4a'/ 4cc	.	2 4	.
8d#\J	.	.	.	.	.
8E\L	5	4cc'/	2g\	.	.
8F#\	.	.	.	.	.
8G\	.	4b'/)	.	.	.
8A\J	.	.	.	.	.
*	*	*v	*v	*	*
!!LO:LB;g=original
=16	=16	=16	=16	=16
.	.	(>(<8qb/	5	.
8B\L	1	8a/L)	4	.
8BB\	5	8g/	.	.
8C#X\	3	8a/	.	.
8D#X\J	2	8f#X/J	.	.
8E\L	1	4e/ 4g	1 3	.
8F#X\	3	.	.	.
8G\	2	4e/)	.	.
8E\J)	4	.	.	.
=17	=17	=17	=17	=17
(8B\L	2	(4f#X'\ 4dd	4	.
8A\	.	.	.	.
8c\	1	4f#'\ 4ee	5	.
8A\J	4	.	.	.
8B\L	3	4g'\ 4ee	.	.
8c\	.	.	.	.
8d\	.	4f#'\ 4dd	.	.
8A\J	3	.	.	.
=18	=18	=18	=18	=18
8G\L	4	4e'\ 4dd	.	.
8A\	.	.	.	.
8A#X\	.	4e/ 4cc#X	4	.
8F#X\J	4	.	.	.
8B\L	1	2d/) 2dd	.	.
8An\	.	.	.	.
8B\	.	.	.	.
8G\J)	3	.	.	.
=19	=19	=19	=19	=19
*	*	*^	*	*
(8c\L	1	(>4e/ 4a	2ryy	3	.
8B\	2	.	.	.	.
8A\	1	4e-X/ 4cc	.	5	.
8G\J	2	.	.	.	.
4F#X\	3	4cc/	8d\L	.	.
.	.	.	8a\J	.	>
8G/L	2	4g/ 4b	4ryy	2 4	.
8BB/J	5	.	.	.	.
=20	=20	=20	=20	=20	=20
8C/L	3	4e/ 4g 4a	2ryy	1 2 3	.
8C#X/	2	.	.	.	.
8D/	1	4d/ 4f#X 4a	.	5	.
8DD/J	.	.	.	.	.
2GG/)	3	2g/)	8B\L	5	]
.	.	.	8d\	.	.
.	.	.	8B\	.	.
.	.	.	8d\J	.	.
!!LO:LB:g=original
=21	=21	=21	=21	=21	=21
!	!	!	!	!	!LO:DY:rj
(4E-X\	2	(4f#X/	8A\L	5	pp
.	.	.	8c\	.	.
4C/	3	4f#/	8A\	.	.
.	.	.	8e-X\J	.	.
4GG/	.	2g/	8B\L	5	.
.	.	.	8d\	.	.
4D\	2	.	8B\	.	.
.	.	.	8d\J)	.	.
=22	=22	=22	=22	=22	=22
4AA/	5	(8dd/L	4e\	5	.
.	.	8cc/	.	4	.
4D\	2	8b/	4f#X\	1 3	<
.	.	8a/J	.	.	.
8G\L	1	4g/ 4b	2ryy	1 3	.
8F#X\	.	.	.	.	.
8E\	.	4g/)	.	.	[
8D\J)	4	.	.	.	.
=23	=23	=23	=23	=23	=23
(4C/	2	(4f#X/	8e-X\L	3 5	pp
.	.	.	8d\	.	.
4AA/	4	4f#/	8e-\	.	.
.	.	.	8c\J	2	.
4GG/	5	2g/	8B\L	1 5	.
.	.	.	8d\	.	.
4D\	2	.	8B\	.	.
.	.	.	8d\J)	.	.
=24	=24	=24	=24	=24	=24
4AA/	5	8dd/L	4e\	5	<
.	.	8cc/	.	4	.
4D\	2	8b/	4f#X\	3	.
.	.	8a/J	.	2	.
4G\)	1	4B/ 4g	2ryy	1 5	.
4r	.	4rc	.	.	[
*	*	*v	*v	*	*
=25	=25	=25	=25	=25
(<4D\	.	4d/ 4g 4b	.	f
4BB/	.	4g\ 4b 4dd	.	.
4GG/)	.	4b\ 4dd 4gg	.	.
4r	.	4r	.	.
=26	=26	=26	=26	=26
4GG^>/ 4G	.	4g^>/	.	.
4r	.	4r	.	.
2r	.	2r	.	.
!!LO:PB:g=original
=27||	=27||	=27||	=27||	=27||
1r	.	(2dd\	5	pp
.	.	4b-X\	3	.
.	.	4g/	1	.
*clefG2	*	*	*	*
=28	=28	=28	=28	=28
(4e-X/	2	4.f#X/	2	.
4d/	.	.	.	.
.	.	8g/	.	.
4c/)	.	4a/	.	.
4r	.	4f#/	.	.
=29	=29	=29	=29	=29
(4B-X/	2	8g/L	3	.
.	.	8f#X/	2	.
4A/	.	8g/	1	.
.	.	8a/J	2	.
4G/)	.	8cc\L	4	.
.	.	8b-X\	.	.
4r	.	8a\	.	.
.	.	8g\J	.	.
=30	=30	=30	=30	=30
(>8A/L	4	4f#X/)	2	.
8G/	5	.	.	.
8A/	.	4r	.	.
8B-X/J	.	.	.	.
8d/L	.	4r	.	.
8c/	.	.	.	.
8B-/	.	(>8g/L	1	.
8A/J	.	8a/J	2	.
!!LO:LB:g=original
=31	=31	=31	=31	=31
4G/	.	8b-X\L	3	.
.	.	8a\	1	.
8d/L	1	8b-\	.	.
8c/J	.	8cc\J	2	.
4B-X/)	.	8ee-X\L	5	.
.	.	8dd\	.	.
4r	.	8cc\	.	.
.	.	8b-\J	.	.
=32	=32	=32	=32	=32
(>8c/L	3	4a/)	1	.
8B-X/	.	.	.	.
8c/	.	4r	.	.
8d/J	.	.	.	.
8f/L	.	(4bn\	.	.
8e-X/	.	.	.	.
8d/	.	[4gg\)	.	.
8c/J	4	.	.	.
=33	=33	=33	=33	=33
4Bn/	1	8gg\L]	.	<
.	.	(8g\	1	.
*clefF4	*	*	*	*
4A\	2	8bn\	.	.
.	.	8dd\J	.	.
4G\	3	8ff\L	5	[
.	.	8ee-X\	3	.
4F#X\	4	8dd\	.	.
.	.	8cc\J	.	.
=34	=34	=34	=34	=34
2G\)	3	8b-X\L	2	.
.	.	8a\	1	.
.	.	8b-\	.	.
.	.	8cc\J	.	.
(4Fn\	5	8dd\L	4	.
.	.	8cc\	1	.
4f\)	.	8dd\	.	.
.	.	8ee-X\J)	.	.
=35	=35	=35	=35	=35
(8d\L	3	(2ff\	5	mf
8e-X\	2	.	.	.
8d\	1	.	.	.
8c\J	2	.	.	.
8B-X\L	3	4dd\	4	.
8A\	1	.	.	.
8G\	.	4b-X\	2	.
8F\J	.	.	.	.
!!LO:LB:g=original
=36	=36	=36	=36	=36
8E-X\L	4	4.g/	1	.
8D\	5	.	.	.
8E-\	3	.	.	.
8F\J	2	8a/	.	.
4G\	1	8b-X\L	.	.
.	.	8a\	.	.
4C/)	4	8b-\	.	.
.	.	8cc\J	.	.
=37	=37	=37	=37	=37
!LO:TX:i:b:t=marcato	!	!	!	!LO:DY:rj:b=2
(2c\	1	8a/L	.	f
.	.	8g/	.	.
.	.	8a/	.	.
.	.	8b-X/J	.	.
4A\	2	8cc\L	.	.
.	.	8b-\	.	.
4F\	3	8a\	.	.
.	.	8g\J	.	.
=38	=38	=38	=38	=38
4.D\	5	8f/L	.	.
.	.	8e/	.	.
.	.	8f/	.	.
8E\	3	8g/J	.	.
4F\	2	8a/L	.	.
.	.	8g/	.	.
4C/	5	8f/	.	.
.	.	8e/J	.	.
=39	=39	=39	=39	=39
*	*	*^	*	*
8D\L	4	(2b-X/)	4.f\	2 5	.
8C\	.	.	.	.	.
8D\	.	.	.	.	.
8E\J	.	.	8g\	3	.
8F\L	2	4f/ 4a	2ryy	2 4	.
8G\	1	.	.	.	.
8A\	2	4f/)	.	.	.
8F\J	5	.	.	.	.
*	*	*v	*v	*	*
=40	=40	=40	=40	=40
8B-X\L	2	(>4.d/	1	.
8A\	.	.	.	.
8B-\	.	.	.	.
8G\J	4	8e/	.	.
8A\L	1	4f/	3	.
8G\	.	.	.	.
8A\	.	4c/)	1	.
8F\J	2	.	.	.
!!LO:LB:g=original
=41	=41	=41	=41	=41
2E\	3	(8d/L	2	.
.	.	8c/	.	.
.	.	8d/	.	.
.	.	8e/J	.	.
4D\)	2	8f/L	1	.
.	.	8g/	.	.
4r	.	8a/	.	.
.	.	8bn/J	4	.
=42	=42	=42	=42	=42
(8E\L	3	2cc\	5	.
8D\	.	.	.	.
8E\	.	.	.	.
8F\J	.	.	.	.
8G\L	1	4b\)	.	.
8A\	4	.	.	.
8B\	.	4r	.	.
8c\J	.	.	.	.
=43	=43	=43	=43	=43
2d\	1	(8cc\L	3	.
.	.	8b\	2	.
.	.	8cc\	3	.
.	.	8dd\J	1	.
2c\	2	8ee\L	.	.
.	.	8ff\	.	.
.	.	8gg\	.	.
.	.	8aa\J)	5	.
=44	=44	=44	=44	=44
8B\L)	3	(2gg\	5	.
8A\	.	.	.	.
8B\	.	.	.	.
8c\J	.	.	.	.
4d\	.	8ff\L	.	.
.	.	8g\	.	.
4B\	.	8dd\	.	.
.	.	8g\J	.	.
=45	=45	=45	=45	=45
(4A#X\	4	8cc#X\L	2	.
.	.	8g\	.	.
4B\	.	8dd\	3	.
.	.	8g\J	.	.
4c\)	.	8ee\L	4	.
.	.	8g\	.	.
4r	.	8ee\	.	.
.	.	8g\J	.	.
!!LO:LB:g=original
=46	=46	=46	=46	=46
(4B\	.	8dd#X\L	4	.
.	.	8g\	.	.
4c\	.	8ee\	4	.
.	.	8g\J	.	.
4d\)	.	8ff\L	5	.
.	.	8g\	.	.
4r	.	8ff\	.	.
.	.	8g\J	.	.
=47	=47	=47	=47	=47
(4c#X\	.	8ee\L	.	.
.	.	8g\	.	.
4d\	.	8ff\	.	.
.	.	8g\J	.	.
4e\)	.	8gg\L	.	.
.	.	8g\	.	.
4r	.	8gg\	.	.
.	.	8g\J)	.	.
=48	=48	=48	=48	=48
!	!	!LO:TX:i:b:t=poco ritard.	!	!
1r	.	(8gg\L	.	>
.	.	8ff#X\	2	.
.	.	8aa\	.	.
.	.	8gg\J	.	.
.	.	8bb\L	.	.
.	.	8aa\	.	.
.	.	8gg\	.	.
.	.	8ffn\J)	.	]]
*clefG2	*	*	*	*
=49	=49	=49	=49	=49
!	!	!LO:TX:i:b:t=a tempo	!	!LO:DY:a=2
8r	.	(2ee\ 2gg	3 5	pp
(8g/L	1	.	.	.
8f#X/	.	.	.	.
[8g/J)	.	.	.	.
8g/L]	.	4ee\	3	.
(>8c/	4	.	.	.
8d/	.	4cc\	1	.
8e/J	.	.	.	.
=50	=50	=50	=50	=50
8f/L	1	4.a/	2	.
8e/	.	.	.	.
8f/	.	.	.	.
8d/J	3	8b\	3	.
8e/L	1	4cc\	4	.
8d/	.	.	.	.
8e/	1	4g/	1	.
8c/J	2	.	.	.
!!LO:PB:g=original
=51	=51	=51	=51	=51
2B/)	3	8a/L	2	.
.	.	8g/	.	<
.	.	8a/	.	.
.	.	8b/J	3	.
(>4A/	4	8cc\L	1	.
.	.	8dd\	.	.
4G/	.	8ee\	.	.
.	.	8cc\J	.	[
=52	=52	=52	=52	=52
8A/L	.	4.ff\	4	>
8B/J	.	.	.	.
4c/)	.	.	.	.
.	.	8ee\	.	.
(>8B/L	3	4dd\)	.	.
8G/	5	.	.	.
8A/	.	4r	.	]]
8B/J	.	.	.	.
=53	=53	=53	=53	=53
8c/L	2	(2aa\	5	.
8d/	1	.	.	.
8e/	3	.	.	.
8f/J	.	.	.	.
8g/L	1	4ff\	3	.
8a/	3	.	.	.
8b/	2	4dd\	1	.
8a/J	3	.	.	.
=54	=54	=54	=54	=54
8g/L	1	4.cc#X\	2	.
8f/	.	.	.	.
8e/	.	.	.	.
8d/J)	4	8dd\	.	.
(>8c#X/L	5	4ee\	.	.
8b-X/	2	.	.	.
8a/	1	4cc#\	.	.
8g/J	2	.	.	.
!!LO:LB:g=original
=55	=55	=55	=55	=55
8f/L	3	8dd\L	3	.
8g/	.	8cc#X\	.	<
8f/	.	8dd\	1	.
8e/J	4	8ee\J	2	.
4d/	5	8gg\L	4	.
.	.	8ff\	.	.
4g/)	2	8ee\	.	.
.	.	8dd\J	.	[
=56	=56	=56	=56	=56
(>8e/L	1	4ccn\)	2	.
8d/	.	.	.	.
8c/	.	4r	.	.
8B/J	.	.	.	.
4A/	5	(8ff\L	5	.
.	.	8ee\	.	.
4e/)	2	8dd\	.	.
.	.	8cc\J	.	.
=57	=57	=57	=57	=57
(>8d/L	1	4b\)	.	.
8c/	.	.	.	.
8B/	.	4r	.	.
8A/J	.	.	.	.
4G/	5	(8ee\L	5	.
.	.	8dd\	.	.
4d/)	1	8cc\	.	.
.	.	8b\J	.	.
=58	=58	=58	=58	=58
4c/	2	8a\L	1	<
.	.	8b\	.	.
8r	.	8cc\	.	.
8B/	5	8dd\J	1	.
8c/L	4	8ee\L	2	.
8B/	5	8dd\	.	.
8c/	4	8ee\	.	.
8d/J	3	8ff\J)	3	[
=59	=59	=59	=59	=59
8e/L	2	(4b'\ 4gg	4	mf
8g/	1	.	.	.
!	!	!LO:TX:i:b:t=cantabile	!	!
8f/	.	4b'\ 4aa	.	.
8g/J	.	.	.	.
8e/L	3	4cc'\ 4aa	.	.
8g/	.	.	.	.
8e/	.	4cc'\) 4gg	.	.
8g/J	.	.	.	.
!!LO:LB:g=original
=60	=60	=60	=60	=60
.	.	(>(<8qgg/	5	.
*	*	*^	*	*
8d/L	4	8ff/L)	4cc\	4	.
8g/	.	8ee/	.	.	.
8d/	.	8ff/	4b\	.	.
8g/J	.	8dd/J	.	.	.
8c/L	4	4cc\ 4ee	2ryy	.	.
8g/	.	.	.	.	.
8e/	.	4cc\)	.	.	.
8g/J	.	.	.	.	.
*	*	*v	*v	*	*
=61	=61	=61	=61	=61
8B/L	5	(8dd\L	3	.
8g#X/	.	8cc#X\	.	.
8e/	.	8dd\	.	.
8g#/J	.	8ff\J)	.	.
8A/L	5	(8ff\L	4	.
8e/	.	8ee\)	.	.
8c/	.	(8ee\	3	.
8e/J	.	8dd\J)	.	.
*clefF4	*	*	*	*
=62	=62	=62	=62	=62
.	.	(>(<8qee/	5	.
*	*	*^	*	*
(4E\	4	8dd/L)	4a\	4	.
.	.	8cc/	.	.	.
8F#X\L	.	8dd/	8a\L	.	.
8G#X\J	.	8b/J	8b\J	.	.
8A\L	1	4a/ 4cc	2ryy	.	.
8B\	3	.	.	.	.
8c\	2	4a/)	.	.	.
8A\J)	4	.	.	.	.
*	*	*v	*v	*	*
*clefG2	*	*	*	*
=63	=63	=63	=63	=63
(8e/L	1	(4b'\ 4gg	4	.
8d/	4	.	.	.
8e/	3	4b'\ 4aa	.	.
8f/J	2	.	.	.
8e/L	1	4cc#X'\ 4aa	.	.
8A/	4	.	.	.
8B/	.	4ee'\) 4gg	.	.
8c#X/J	.	.	.	.
=64	=64	=64	=64	=64
8d/L	1	(4a'\ 4ff	4	.
8c#X/	4	.	.	.
8d/	.	4a'\ 4gg	.	.
8e/J	2	.	.	.
8d/L	1	4b'\ 4gg	.	.
8G/	4	.	.	.
8A/	.	4dd'\) 4ff	.	.
8B/J	.	.	.	.
!!LO:LB:g=original
=65	=65	=65	=65	=65
*	*	*^	*	*
8c/L	1	(4g'\ 4ee	2.ryy	4	>
8B/	4	.	.	.	.
8c/	.	4g#X'\ 4ff	.	.	.
8d/J	.	.	.	.	.
8e/L	1	4a'\ 4ff	.	.	.
8f/J	3	.	.	.	.
4f#/	2	4ee/	8a\L	.	]
.	.	.	8b\J	.	.
=66	=66	=66	=66	=66	=66
8g/L	1	4cc'\ 4ee	2ryy	3 5	>
8G/	5	.	.	.	.
8A/	4	4f/ 4dd	.	5	.
8B/J	3	.	.	.	.
2c/)	2	2cc/	8e\L	5	.
.	.	.	8g\	.	.
.	.	.	8e\	.	.
.	.	.	8g\J)	.	]
*clefF4	*	*	*	*	*
=67	=67	=67	=67	=67	=67
(4A-X\	2	(4b/	8d\L	5	pp
.	.	.	8f\	.	.
4F\	3	4b/	8d\	5	.
.	.	.	8a-X\J	.	.
4C/	5	2cc/)	8e\L	5	.
.	.	.	8g\	.	.
4G\	2	.	8e\	.	.
.	.	.	8g\J	.	.
=68	=68	=68	=68	=68	=68
4D\	5	(8gg/L	4a\	5	.
.	.	8ff/	.	4	<
4G\	2	8ee/	4b\	3	.
.	.	8dd/J	.	2	.
8c\L	1	4cc/ 4ee	2ryy	1 3	.
8B\	.	.	.	.	.
8A\	.	4cc/)	.	1	.
8G\J)	4	.	.	.	[
=69	=69	=69	=69	=69	=69
(2F\	1	(4a-X/	8d\L	3 5	pp
.	.	.	8c\	.	.
.	.	4a-/	8B\	.	.
.	.	.	8c\J	.	.
2E\)	2	4g/)	8d\L	.	.
.	.	.	8c\	.	.
.	.	4ryy	8B\	.	.
.	.	.	8c\J	.	.
!!LO:LB:g=original
=70	=70	=70	=70	=70	=70
(4D\	1	(8g/L	4A\	5	.
.	.	8f/	.	4	.
4GG/	5	8e/	4B\	1 3	.
.	.	8d/J)	.	.	.
*	*	*clefF4	*	*	*
2C/)	2	2c/	(8E\L	.	.
.	.	.	8G\	.	.
.	.	.	8E\	.	.
.	.	.	8G\J)	.	.
=71	=71	=71	=71	=71	=71
!	!	!LO:TX:i:b:t=piu e ritard	!	!	!
4AA-X/	.	2c/	((8E-X\L	.	.
.	.	.	8A-X\	.	pp
4AA-/	.	.	8E-\	.	.
.	.	.	8A-\J)	.	.
2C/	.	2c/	8En\L	.	.
.	.	.	8G\	.	.
.	.	.	8E\	.	.
.	.	.	8G\J	.	.
=72	=72	=72	=72	=72	=72
2FF/	.	2c/	8A-X\L	.	.
.	.	.	8G\	.	.
.	.	.	8F\	.	.
.	.	.	8A-\J	.	.
4CC/	.	4c/	4E\)	.	.
4r	.	4r	4ryy	.	.
*	*	*v	*v	*	*
*	*	*clefG2	*	*
=73	=73	=73	=73	=73
(4G\	.	4c/ 4e	.	f
!	!	!LO:TX:i:b:t=a tempo	!	!
4E\	.	4c/ 4e 4g	.	.
4C\)	.	4e/ 4g 4cc	.	.
4r	.	4r	.	.
=74	=74	=74	=74	=74
4CC^/ 4C	.	4c^/	.	.
4r	.	4r	.	.
2r	.	2r	.	.
==	==	==	==	==
*-	*-	*-	*-	*-
!!!system-decoration: [(s1,s2)]
!!!RDF**kern: > = above
!!!RDF**kern: < = below
!!!ENC: Berenika Jozajtis
!!!END: 2023-10-07
!!!ENC: Leszek Kubiak
!!!END: 2023-10-13
